!!!COM:	la Rue, Pierre de
!!!CDT:	~1452///-1518/11/20
!!!OTL:	Gaude virgo mater Christi
!!!AGN:	Motet
!!!SCT:	Rue2005
!!!SCA:	Rue2005
!!!voices:	4
**kern	**text	**kern	**text	**kern	**text	**kern	**text
*staff4	*staff4	*staff3	*staff3	*staff2	*staff2	*staff1	*staff1
*Ivox	*	*Ivox	*	*Ivox	*	*Ivox	*
*I"Bassus	*	*I"Tenor	*	*I"Contra	*	*I"Discantus	*
*I'B	*	*I'T	*	*I'C	*	*I'D	*
*>[A,B]	*>[A,B]	*>[A,B]	*>[A,B]	*>[A,B]	*>[A,B]	*>[A,B]	*>[A,B]
*>A	*>A	*>A	*>A	*>A	*>A	*>A	*>A
*clefF4	*	*clefGv2	*	*clefGv2	*	*clefG2	*
*k[]	*	*k[]	*	*k[]	*	*k[]	*
*M3/1	*	*M3/1	*	*M3/1	*	*M3/1	*
*met(O)	*	*met(O)	*	*met(O)	*	*met(O)	*
!!section: Gaude virgo
!!!OMD: Gaude virgo
=1-	=1-	=1-	=1-	=1-	=1-	=1-	=1-
0E	Gau-	0.r	.	1e	Gau-	0.r	.
.	.	.	.	2e\	-de	.	.
.	.	.	.	1e	vir-	.	.
1E	-de	.	.	.	.	.	.
.	.	.	.	2e\	-go,	.	.
=2	=2	=2	=2	=2	=2	=2	=2
1D	vir-	0.r	.	1f	ma-	1a	Gau-
2D\	-go,	.	.	0f	-ter	2a/	-de
1F	ma-	.	.	.	.	1a	vir-
2F\	-ter	.	.	.	.	2a/	-go,
=3	=3	=3	=3	=3	=3	=3	=3
1G	Chri-	0.r	.	1d	Chri-	1b	ma-
0E	-sti,	.	.	2.e\	-sti,	0b	-ter
.	.	.	.	4f\	.	.	.
.	.	.	.	4g\	.	.	.
.	.	.	.	4e\	.	.	.
.	.	.	.	[2g\	Tu	.	.
=4	=4	=4	=4	=4	=4	=4	=4
1G	Tu	0.r	.	4g\]	.	1g	Chri-
.	.	.	.	4f\	.	.	.
.	.	.	.	4d\	.	.	.
.	.	.	.	4e\	.	.	.
2D\	que	.	.	2f\	.	2.a/	-sti,
2.A\	so-	.	.	1e	que	.	.
.	.	.	.	.	.	4b\	.
.	.	.	.	.	.	2cc\	.
4B\	.	.	.	.	.	.	.
4c\	.	.	.	2e\	so-	[2cc\	Tu
4A\	.	.	.	.	.	.	.
=5	=5	=5	=5	=5	=5	=5	=5
2.c\	.	0.r	.	2A/	-la	4cc\]	.
.	.	.	.	.	.	4b\	.
.	.	.	.	1e	me-	4g/	.
4B\	.	.	.	.	.	4a/	.
2G\	.	.	.	.	.	2b\	que
2F\	.	.	.	2f\	-ru-	2a/	so-
2c\	-la	.	.	2e\	-i-	2ee\	-la
[2d\	me-	.	.	2d\	.	[2ff\	me-
=6	=6	=6	=6	=6	=6	=6	=6
4d\]	.	0.r	.	2f\	.	4ff\]	.
4c\	.	.	.	.	.	4ee\	.
4B\	.	.	.	2.g\	.	4dd\	.
4A\	.	.	.	.	.	4cc\	.
2G\	.	.	.	.	.	4b\	-ru-
.	.	.	.	4f\	.	4a/	.
2A\	-ru-	.	.	1e	.	1a	-i-
1B	-i-	.	.	.	.	.	.
.	.	.	.	2d\	.	2g#i/	.
=7	=7	=7	=7	=7	=7	=7	=7
0A	-sti,	0c	O	1e	-sti,	0a	-sti,
.	.	.	.	2r	.	.	.
.	.	.	.	2e\	O	.	.
1r	.	1c	vir-	2g\	vir-	1r	.
.	.	.	.	[2a\	.	.	.
=8	=8	=8	=8	=8	=8	=8	=8
1A	O	0c	-go	2a\]	.	1ee	O
.	.	.	.	1a	-go	.	.
2A\	vir-	.	.	.	.	2ee\	vir-
1F	-go	.	.	2a\	dul-	1ff	-go
.	.	1c	dul-	2.a\	-cis	.	.
2F\	dul-	.	.	.	.	2ff\	dul-
.	.	.	.	4d\	.	.	.
=9	=9	=9	=9	=9	=9	=9	=9
2G\	-cis	0B	-cis	2d\	si-	2dd\	-cis
2G\	si-	.	.	1g	-ma,	2dd\	si-
0E	-ma,	.	.	.	.	2ee\	.
.	.	.	.	1g	Es-	4dd\	.
.	.	.	.	.	.	4cc\	.
.	.	1B	si-	.	.	1b	.
.	.	.	.	2g\	-se	.	.
=10	=10	=10	=10	=10	=10	=10	=10
2.A\	Es-	2.c\	.	2a\	tan-	1a	-ma,
.	.	.	.	2e\	-te	.	.
4G\	.	4B\	.	.	.	.	.
2F\	-se	2c\	.	2.f\	di-	2r	.
2D\	tan-	1d	.	.	.	1a	Es-
.	.	.	.	4g\	-gni-	.	.
1A	-te	.	.	1e	-ta-	.	.
.	.	2c#i\	.	.	.	2a/	-se
=11	=11	=11	=11	=11	=11	=11	=11
2r	.	1d	-ma,	1d	-tis,	2b\	tan-
2D\	di-	.	.	.	.	1a	-te
1D	-gni-	2r	.	2r	.	.	.
.	.	2d\	di-	2a\	Ut	1dd	di-
1D	-ta-	2d\	-gni-	2a\	sis	.	.
.	.	2d\	-ta-	2a\	san-	4cc\	-gni-
.	.	.	.	.	.	4b\	.
=12	=12	=12	=12	=12	=12	=12	=12
1.A	-tis,	0e	-tis,	1a	-cte	1cc	-ta-
.	.	.	.	2e\	.	2a/	-tis,
4G\	.	.	.	2.a\	tri-	2.cc\	Ut
4F\	.	.	.	.	.	.	.
1E	.	1c	Ut	.	.	.	.
.	.	.	.	2.g\	-ni-	4dd\	.
.	.	.	.	.	.	2ee\	sis
=13	=13	=13	=13	=13	=13	=13	=13
0D	Ut	0d	sis	1.f	-ta-	0ff	san-
.	.	.	.	4e\	.	.	.
.	.	.	.	4d\	.	.	.
1D	sis	1f	san-	1a	-tis	1dd	-cte
=14	=14	=14	=14	=14	=14	=14	=14
2A\	san-	2e\	-cte	0.r	.	2.ee\	tri-
2E\	-cte	2.g\	tri-	.	.	.	.
.	.	.	.	.	.	4dd\	.
2.G\	tri-	.	.	.	.	4b\	-ni-
.	.	4f\	.	.	.	4cc\	.
.	.	4d\	-ni-	.	.	2.dd\	-ta-
4F\	.	4e\	.	.	.	.	.
2D\	-ni-	1f	-ta-	.	.	.	.
.	.	.	.	.	.	4cc\	.
[2A\	-ta-	.	.	.	.	2a/	.
=15	=15	=15	=15	=15	=15	=15	=15
2A\]	.	2e\	-tis	1a	Ses-	2ee\	-tis
1D	-tis	2d\	Ses-	.	.	2.ff\	Ses-
.	.	1f	-si-	2a\	-si-	.	.
.	.	.	.	.	.	4ee\	.
2.A\	Ses-	.	.	2.a\	-o-	4cc\	.
.	.	.	.	.	.	4dd\	.
.	.	2.e\	-o-	.	.	2ee\	.
4B\	-si-	.	.	4g\	.	.	.
2c\	-o-	.	.	2e\	.	2cc\	-si-
.	.	4d\	.	.	.	.	.
=16	=16	=16	=16	=16	=16	=16	=16
1.G	-ne	4B\	-ne	2d\	-ne	2.dd\	-o-
.	.	4c\	.	.	.	.	.
.	.	2.d\	pro-	2.g\	pro-	.	.
.	.	.	.	.	.	4cc\	.
.	.	.	.	.	.	4b\	-ne
.	.	4c\	.	4f\	.	4a/	.
2A\	pro-	4B\	.	4e\	.	1a	pro-
.	.	4A/	.	4d\	.	.	.
1E	-xi-	1B	-xi-	1e	-xi-	.	.
.	.	.	.	.	.	2g#i/	-xi-
=17	=17	=17	=17	=17	=17	=17	=17
0.A	-ma.	1A	-ma.	0.e	-ma.	0.a	-ma.
.	.	2r	.	.	.	.	.
.	.	2.A/	Gau-	.	.	.	.
.	.	4B\	.	.	.	.	.
.	.	4c\	.	.	.	.	.
.	.	4d\	.	.	.	.	.
=18	=18	=18	=18	=18	=18	=18	=18
2r	.	2e\	.	0.r	.	0.r	.
2.D\	Gau-	2f\	-de	.	.	.	.
.	.	1d	flo-	.	.	.	.
4E\	.	.	.	.	.	.	.
4F\	.	.	.	.	.	.	.
4G\	.	.	.	.	.	.	.
2A\	.	2c\	-re	.	.	.	.
2B\	-de	[2d\	vir-	.	.	.	.
=19	=19	=19	=19	=19	=19	=19	=19
1G	flo-	4d\]	.	0.r	.	0.r	.
.	.	4c\	.	.	.	.	.
.	.	2B\	.	.	.	.	.
2F\	-re	2A/	-gi-	.	.	.	.
4G\	vir-	2d\	-na-	.	.	.	.
4F\	.	.	.	.	.	.	.
2E\	-gi-	2c\	-li,	.	.	.	.
[2D\	-na-	[2f\	Que	.	.	.	.
=20	=20	=20	=20	=20	=20	=20	=20
2D\]	.	2f\]	.	0.r	.	0.r	.
2A\	-li,	2e\	ho-	.	.	.	.
2B-i\	Que	2d\	.	.	.	.	.
4B-i\	ho-	4g\	-no-	.	.	.	.
4A\	.	4f\	.	.	.	.	.
4G\	.	4e\	.	.	.	.	.
4F\	.	4d\	.	.	.	.	.
4c\	-no-	[2e\	-re	.	.	.	.
4B-i\	.	.	.	.	.	.	.
=21	=21	=21	=21	=21	=21	=21	=21
4A\	.	2e\]	.	0.r	.	0.r	.
4G\	.	.	.	.	.	.	.
2A\	-re	4e\	spe-	.	.	.	.
.	.	4d\	.	.	.	.	.
4A\	spe-	4c\	-ci-	.	.	.	.
4G\	.	4B\	.	.	.	.	.
4F\	-ci-	1e	-a-	.	.	.	.
4E\	.	.	.	.	.	.	.
1F	-a-	.	.	.	.	.	.
.	.	2d\	.	.	.	.	.
=22	=22	=22	=22	=22	=22	=22	=22
0.E	-li.	0.e	-li.	0.r	.	2.g/	Tran-
.	.	.	.	.	.	4a/	.
.	.	.	.	.	.	4b\	.
.	.	.	.	.	.	4cc\	.
.	.	.	.	.	.	1b	.
.	.	.	.	.	.	2g/	-scen-
=23	=23	=23	=23	=23	=23	=23	=23
0.r	.	0.r	.	2.c\	Tran-	2a/	-dis
.	.	.	.	.	.	2.g/	splen-
.	.	.	.	4d\	.	.	.
.	.	.	.	4e\	-scen-	.	.
.	.	.	.	4f\	.	4a/	.
.	.	.	.	1e	-dis	4b\	.
.	.	.	.	.	.	4cc\	.
.	.	.	.	.	.	2b\	.
.	.	.	.	4c\	splen-	[2a/	-di-
.	.	.	.	4d\	.	.	.
=24	=24	=24	=24	=24	=24	=24	=24
0.r	.	0.r	.	4e\	.	2a/]	.
.	.	.	.	4f\	.	.	.
.	.	.	.	1e	-di-	2g/	.
.	.	.	.	.	.	1f	-fe-
.	.	.	.	2d\	-fe-	.	.
.	.	.	.	1e	-rum	1e	-rum
=25	=25	=25	=25	=25	=25	=25	=25
2.E\	an-	0e	Et	0.r	.	0.r	.
4F\	.	.	.	.	.	.	.
2G\	-ge-	.	.	.	.	.	.
2.A\	-lo-	.	.	.	.	.	.
.	.	1e	san-	.	.	.	.
4G\	.	.	.	.	.	.	.
4F\	.	.	.	.	.	.	.
4E\	.	.	.	.	.	.	.
=26	=26	=26	=26	=26	=26	=26	=26
1D	-rum	0f	-cto-	0.r	.	2.a/	an-
.	.	.	.	.	.	4b\	.
1r	.	.	.	.	.	2cc\	-ge-
.	.	.	.	.	.	2.dd\	-lo-
1D	prin-	1f	-rum	.	.	.	.
.	.	.	.	.	.	4cc\	.
.	.	.	.	.	.	4b\	-rum
.	.	.	.	.	.	4a/	.
=27	=27	=27	=27	=27	=27	=27	=27
2.E\	-ci-	0e	de-	1B	an-	2.g/	prin-
4F\	.	.	.	.	.	4a/	.
2G\	.	.	.	2B\	-ge-	2b\	-ci-
2.A\	-pa-	.	.	1A	-lo-	2.cc\	-pa-
.	.	1c	-co-	.	.	.	.
4G\	.	.	.	.	.	4b\	.
4F\	.	.	.	[2a\	-rum	4a/	.
4E\	.	.	.	.	.	4g/	.
=28	=28	=28	=28	=28	=28	=28	=28
1D	-tum	2.d\	-ra-	4a\]	.	4f/	.
.	.	.	.	4g\	.	4d/	.
.	.	.	.	4f\	prin-	2.f/	.
.	.	4A/	.	4e\	.	.	.
1r	.	2d\	.	4d\	-ci-	.	.
.	.	.	.	4c\	.	4g/	.
.	.	2e\	.	1c	-pa-	2e/	.
1r	.	1f	.	.	.	1d	.
.	.	.	.	2B\	.	.	.
=29	=29	=29	=29	=29	=29	=29	=29
0A	Di-	0e	-tum	1c	-tum	0c	-tum
.	.	.	.	1r	.	.	.
1B-i	-gni-	1d	Di-	1G	Et	1g	Et
=30	=30	=30	=30	=30	=30	=30	=30
2A\	-ta-	1e	.	2.c\	san-	2a/	san-
1A	-te	.	.	.	.	1cc	-cto-
.	.	.	.	4d\	.	.	.
.	.	2A/	-gni-	2e\	.	.	.
4G\	.	1d	-ta-	1A	-cto-	2dd\	-rum
4F\	.	.	.	.	.	.	.
1E	.	.	.	.	.	1ee	de-
.	.	2c#i\	.	2G/	.	.	.
=31	=31	=31	=31	=31	=31	=31	=31
1.D	nu-	2.d\	.	1A	-rum	2a/	-co-
.	.	.	.	.	.	4ff\	-ra-
.	.	4e\	.	.	.	4ee\	.
.	.	4f\	.	1.a	de-	4dd\	.
.	.	4e\	.	.	.	4cc\	.
1F	.	4d\	.	.	.	1cc	.
.	.	4c\	.	.	.	.	.
.	.	1d	.	.	.	.	.
2G\	.	.	.	2g\	-co-	2b\	.
=32	=32	=32	=32	=32	=32	=32	=32
1A	.	1c	-te	2e\	-ra-	1cc	-tum
.	.	.	.	2f\	.	.	.
2G\	.	2B\	nu-	2g\	-tum	2r	.
2F\	.	1A	.	2.a\	Di-	1cc	Di-
1E	-me-	.	.	.	.	.	.
.	.	.	.	4g\	.	.	.
.	.	2G/	-me-	2e\	-gni-	2cc\	-gni-
=33	=33	=33	=33	=33	=33	=33	=33
0D	-rum.	0.A	-rum.	0f	-ta-	1dd	-ta-
.	.	.	.	.	.	0ff	-te
1F	Gau-	.	.	1a	-te	.	.
=34	=34	=34	=34	=34	=34	=34	=34
2C/	.	0.r	.	2g\	nu-	2ee\	nu-
2G\	.	.	.	2.b\	.	4dd\	.
.	.	.	.	.	.	4cc\	.
1A	.	.	.	.	.	4dd\	.
.	.	.	.	4a\	.	4cc\	.
.	.	.	.	1a	.	4b\	.
.	.	.	.	.	.	4a/	.
1E	.	.	.	.	.	1b	-me-
.	.	.	.	2g#i\	-me-	.	.
=35	=35	=35	=35	=35	=35	=35	=35
1A	-de	2r	.	0a	-rum.	0.a	-rum.
.	.	1c	Gau-	.	.	.	.
2r	.	.	.	.	.	.	.
1F	ne-	2c\	-de	.	.	.	.
.	.	2d\	ne-	1r	.	.	.
[2F\	-xu	[2f\	-xu	.	.	.	.
=36	=36	=36	=36	=36	=36	=36	=36
2F\]	.	2f\]	.	0.r	.	0.r	.
2.G\	vo-	1e	vo-	.	.	.	.
4F\	.	.	.	.	.	.	.
4E\	-lun-	2d\	-lun-	.	.	.	.
4D\	.	.	.	.	.	.	.
1E	-ta-	2.d\	-ta-	.	.	.	.
.	.	4c#i\	.	.	.	.	.
=37	=37	=37	=37	=37	=37	=37	=37
0.D	-tis.	0.d	-tis.	1r	.	2r	.
.	.	.	.	.	.	1a	Et
.	.	.	.	2r	.	.	.
.	.	.	.	2f\	Et	4b-i\	am-
.	.	.	.	.	.	4cc\	.
.	.	.	.	2f\	am-	4dd\	-ple-
.	.	.	.	.	.	4ee\	.
.	.	.	.	4d\	-ple-	[2ff\	-xu
.	.	.	.	4e\	.	.	.
=38	=38	=38	=38	=38	=38	=38	=38
0.r	.	0.r	.	4f\	-xu	2ff\]	.
.	.	.	.	4d\	.	.	.
.	.	.	.	2.g\	ca-	1ee	ca-
.	.	.	.	4f\	.	.	.
.	.	.	.	4e\	-ri-	2dd\	-ri-
.	.	.	.	4d\	.	.	.
.	.	.	.	1e	-ta-	2.dd\	-ta-
.	.	.	.	.	.	4cc#i\	.
=39	=39	=39	=39	=39	=39	=39	=39
0.r	.	1f	Jun-	0.d	-tis;	0.dd	-tis;
.	.	2f\	-cta	.	.	.	.
.	.	1d	sic	.	.	.	.
.	.	2f\	al-	.	.	.	.
=40	=40	=40	=40	=40	=40	=40	=40
1c	Jun-	2e\	-tis-	0.r	.	0.r	.
.	.	2e\	-si-	.	.	.	.
2c\	-cta	1A	-mo;	.	.	.	.
1A	sic	.	.	.	.	.	.
.	.	2r	.	.	.	.	.
2c\	al-	2A/	Ut	.	.	.	.
=41	=41	=41	=41	=41	=41	=41	=41
2B\	-tis-	2d\	ad	0.r	.	0.r	.
2B\	-si-	2d\	vo-	.	.	.	.
1E	-mo;	2e\	.	.	.	.	.
.	.	2.g\	.	.	.	.	.
2r	.	.	.	.	.	.	.
.	.	4f\	.	.	.	.	.
2G\	Ut	4e\	.	.	.	.	.
.	.	4d\	.	.	.	.	.
=42	=42	=42	=42	=42	=42	=42	=42
2A\	ad	1c	-tum	0.r	.	0.r	.
2.c\	vo-	.	.	.	.	.	.
.	.	2r	.	.	.	.	.
4B\	.	.	.	.	.	.	.
4A\	-tum	2c\	con-	.	.	.	.
4G\	.	.	.	.	.	.	.
2.F\	con-	2d\	-se-	.	.	.	.
.	.	[2f\	-qua-	.	.	.	.
4G\	.	.	.	.	.	.	.
=43	=43	=43	=43	=43	=43	=43	=43
4A\	-se-	2f\]	.	0.r	.	0.r	.
4B\	.	.	.	.	.	.	.
2.c\	-qua-	1e	.	.	.	.	.
4B\	.	.	.	.	.	.	.
1A	.	4d\	.	.	.	.	.
.	.	4c\	.	.	.	.	.
.	.	1B	.	.	.	.	.
2G#i\	.	.	.	.	.	.	.
=44	=44	=44	=44	=44	=44	=44	=44
0A	-ris.	0.A	-ris.	1a	Quod	2.cc\	Quod
.	.	.	.	.	.	8dd\L	.
.	.	.	.	.	.	8ee\J	.
.	.	.	.	4a\	vis	2ff\	vis
.	.	.	.	4g\	.	.	.
.	.	.	.	4f\	.	1ee	to-
.	.	.	.	4e\	.	.	.
1D	Quod	.	.	1f	.	.	.
.	.	.	.	.	.	2dd\	-tum,
=45	=45	=45	=45	=45	=45	=45	=45
2.A\	vis	0.r	.	2.e\	to-	1ee	ac
4B\	.	.	.	8f\L	.	.	.
.	.	.	.	8g\J	.	.	.
4c\	to-	.	.	2a\	.	4ee\	pre-
4B\	.	.	.	.	.	4dd\	.
4A\	.	.	.	1g	.	4cc\	.
4G\	.	.	.	.	.	4b\	.
1A	.	.	.	.	.	1cc	-ca-
.	.	.	.	2f#i\	-tum,	.	.
=46	=46	=46	=46	=46	=46	=46	=46
0G	-tum,	0.r	.	1g	ac	2.b\	-ris,
.	.	.	.	.	.	8cc\L	.
.	.	.	.	.	.	8dd\J	.
.	.	.	.	4g\	pre-	2ee\	Ab
.	.	.	.	4f\	.	.	.
.	.	.	.	4e\	.	1dd	il-
.	.	.	.	4d\	.	.	.
1r	.	.	.	1e	-ca-	.	.
.	.	.	.	.	.	2cc#i\	-lo
=47	=47	=47	=47	=47	=47	=47	=47
2.G\	ac	0.r	.	2.d\	-ris,	1dd	dul-
4A\	.	.	.	8e\L	.	.	.
.	.	.	.	8f\J	.	.	.
4B\	pre-	.	.	2g\	Ab	4dd\	-cis-
4A\	.	.	.	.	.	4cc\	.
4G\	.	.	.	1f	il-	4b\	.
4F\	.	.	.	.	.	4a/	.
1G	.	.	.	.	.	1b	-si-
.	.	.	.	2e\	-lo	.	.
=48	=48	=48	=48	=48	=48	=48	=48
2.F\	-ca-	1c	Gau-	2f\	dul-	0a	-mo.
.	.	.	.	2.f\	-cis-	.	.
4G\	.	.	.	.	.	.	.
4A\	.	1c	-de	.	.	.	.
4G\	.	.	.	4e\	.	.	.
4F\	.	.	.	4d\	.	.	.
4E\	.	.	.	4c\	.	.	.
1D	.	1d	.	2.B\	-si-	1r	.
.	.	.	.	4A/	.	.	.
=49	=49	=49	=49	=49	=49	=49	=49
0C	-ris,	0e	splen-	0c	-mo.	1cc	Gau-
.	.	.	.	.	.	1cc	-de
1r	.	1f	-dens	1r	.	1dd	.
=50	=50	=50	=50	=50	=50	=50	=50
1C	Gau-	1e	vas	2.c\	Gau-	1ee	splen-
.	.	.	.	4d\	.	.	.
2C/	-de	2e\	vir-	2e\	-de	2ee\	-dens
1D	splen-	1f	-tu-	2.d\	splen-	2.a/	vas
.	.	.	.	4c\	.	4b\	.
2D\	-dens	2f\	-tum,	4A/	-dens	4cc\	.
.	.	.	.	4B\	.	4dd\	.
=51	=51	=51	=51	=51	=51	=51	=51
2C/	vas	2e\	Cu-	2c\	vas	2ee\	.
1D	vir-	2d\	.	2A/	.	1ff	vir-
.	.	1e	.	2B\	vir-	.	.
2C/	-tu-	.	.	2c\	-tu-	1ee	-tu-
1D	-tum,	1f	.	1A	-tum,	.	.
.	.	.	.	.	.	2dd\	.
=52	=52	=52	=52	=52	=52	=52	=52
2r	.	2e\	-jus	0.r	.	0ee	-tum,
1A	Cu-	2e\	pen-	.	.	.	.
.	.	2e\	-dens	.	.	.	.
2A\	-jus	2.A/	est	.	.	.	.
2.c\	pen-	.	.	.	.	1r	.
.	.	4B\	.	.	.	.	.
.	.	4c\	.	.	.	.	.
4B\	.	4d\	.	.	.	.	.
=53	=53	=53	=53	=53	=53	=53	=53
4A\	.	2e\	.	1r	.	0.r	.
4G\	.	.	.	.	.	.	.
4F\	.	1f	ad	.	.	.	.
4D\	.	.	.	.	.	.	.
2A\	.	.	.	1r	.	.	.
2G\	-dens	1e	nu-	.	.	.	.
2F\	est	.	.	1a	Cu-	.	.
2F\	ad	2d\	.	.	.	.	.
=54	=54	=54	=54	=54	=54	=54	=54
0E	nu-	0e	-tum,	2g\	-jus	1.ee	Cu-
.	.	.	.	4e\	pen-	.	.
.	.	.	.	4f\	.	.	.
.	.	.	.	4g\	.	.	.
.	.	.	.	4e\	.	.	.
.	.	.	.	1a	.	4dd\	-jus
.	.	.	.	.	.	4cc\	.
1E	-tum,	1r	.	.	.	1b	pen-
.	.	.	.	2g#i\	-dens	.	.
=55	=55	=55	=55	=55	=55	=55	=55
1A	To-	1e	To-	1a	est	2a/	-dens
.	.	.	.	.	.	2cc\	est
2A\	-ta	0e	-ta	2a\	ad	2cc\	ad
1E	ce-	.	.	1g	nu-	1b	nu-
2A\	-li	.	.	2a\	.	2a/	.
=56	=56	=56	=56	=56	=56	=56	=56
2D\	cu-	1f	ce-	0a	-tum,	1a	-tum,
1d	.	.	.	.	.	.	.
.	.	1f	-li	.	.	2r	.
2d\	-ri-	.	.	.	.	2a/	Te
2.c\	-a,	1e	cu-	2r	.	2.ee\	be-
.	.	.	.	[2a\	Te	.	.
4B\	.	.	.	.	.	4dd\	.
=57	=57	=57	=57	=57	=57	=57	=57
2A\	Te	2e\	-ri-	2a\]	.	2cc\	-ni-
2B\	.	1d	-a,	1g	be-	2dd\	.
2G\	be-	.	.	.	.	2b\	.
2A\	-ni-	2c\	Te	2e\	-ni-	2a/	-gnam
2D\	-gnam	2d\	be-	2f\	.	2r	.
2d\	et	[2f\	-ni-	2d\	-gnam	2a/	et
=58	=58	=58	=58	=58	=58	=58	=58
2.c\	fe-	4f\]	.	2r	.	2.ee\	fe-
.	.	4e\	-gnam	.	.	.	.
.	.	1e	et	1a	et	.	.
4B\	.	.	.	.	.	4dd\	.
2A\	-li-	.	.	.	.	2cc\	-li-
2B\	.	1d	fe-	1g	fe-	2dd\	.
2G\	.	.	.	.	.	2b\	.
2A\	-cem	2c\	-li-	2e\	-li-	2a/	-cem
=59	=59	=59	=59	=59	=59	=59	=59
2r	.	2d\	-cem	2f\	-cem	2r	.
1A	Je-	1e	Je-	1c	Je-	1a	Je-
2A\	-su	2e\	-su	2c\	-su	2a/	-su
1A	di-	1e	di-	1c	di-	1a	di-
=60	=60	=60	=60	=60	=60	=60	=60
0A	-gnam	0.e	-gnam	2.c\	-gnam	2a/	-gnam
.	.	.	.	.	.	2.cc\	ge-
.	.	.	.	4B\	.	.	.
.	.	.	.	2A/	.	.	.
.	.	.	.	.	.	4a/	-ni-
.	.	.	.	2a\	ge-	2cc\	-tri-
2E\	ge-	.	.	2g\	-ni-	2b\	.
2A\	-ni-	.	.	[2a\	-tri-	[2a/	-cem
=61	=61	=61	=61	=61	=61	=61	=61
2D\	-tri-	2r	.	2a\]	.	2a/]	.
2A\	-cem	2.e\	ge-	2a\	-cem	2a/	Ve-
2r	.	.	.	2g\	Ve-	2b\	-ne-
.	.	4B\	-ni-	.	.	.	.
1A	Ve-	2.e\	-tri-	2a\	.	2.cc\	-rans
.	.	.	.	2.e\	.	.	.
.	.	4f\	.	.	.	4dd\	.
[2E\	-ne-	4g\	-cem	.	.	4ee\	.
.	.	4a\	.	4e\	-ne-	4ff\	.
=62	=62	=62	=62	=62	=62	=62	=62
2E\]	.	2.g\	Ve-	2.B\	-rans	2ee\	.
2.G\	-rans	.	.	.	.	2.dd\	in
.	.	4d\	.	4c\	.	.	.
.	.	2.g\	-ne-	1d	.	.	.
4A\	.	.	.	.	.	4g/	.
2B\	.	.	.	.	.	2.dd\	glo-
.	.	4d\	.	.	.	.	.
1G	.	2.g\	-rans	2r	.	.	.
.	.	.	.	.	.	4g/	.
.	.	.	.	2g\	in	4dd\	.
.	.	4f\	.	.	.	4g/	.
=63	=63	=63	=63	=63	=63	=63	=63
2A\	in	4e\	in	2c\	glo-	2cc\	.
.	.	4c\	.	.	.	.	.
2.G\	glo-	2.d\	glo-	2.g\	.	1b	.
4A\	.	4c\	.	4f\	.	.	.
2F\	.	2A/	.	2d\	.	1a	.
1E	-ri-	1B	-ri-	1e	-ri-	.	.
.	.	.	.	.	.	2g#i/	-ri-
=64	=64	=64	=64	=64	=64	=64	=64
*^	*	*	*	*	*	*	*
0.AAl\	0.Al/	-a.	0.Al	-a.	0.el	-a.	0.al	-a.
*v	*v	*	*	*	*	*	*	*
!!LO:LB:i:g=z
=65||	=65||	=65||	=65||	=65||	=65||	=65||	=65||
*>B	*>B	*>B	*>B	*>B	*>B	*>B	*>B
*clefF4	*	*clefGv2	*	*clefGv2	*	*clefG2	*
*k[]	*	*k[]	*	*k[]	*	*k[]	*
*M2/1	*	*M2/1	*	*M2/1	*	*M2/1	*
*met(C|)	*	*met(C|)	*	*met(C|)	*	*met(C|)	*
!!section: Gaude sponsa
!!!OMD: Gaude sponsa
1A	Gau-	0r	.	0r	.	0r	.
1A	-de	.	.	.	.	.	.
=66	=66	=66	=66	=66	=66	=66	=66
1G	spon-	1e	Gau-	0r	.	0r	.
1E	-sa	1e	-de	.	.	.	.
=67	=67	=67	=67	=67	=67	=67	=67
1G	ca-	1d	spon-	0r	.	0r	.
1G	-ra	1B	-sa	.	.	.	.
=68	=68	=68	=68	=68	=68	=68	=68
1F	de-	1d	ca-	0r	.	0r	.
1D	-i	1d	-ra	.	.	.	.
=69	=69	=69	=69	=69	=69	=69	=69
1A	Nam	1c	de-	0r	.	1cc	Gau-
1A	ut	1A	-i	.	.	1cc	-de
=70	=70	=70	=70	=70	=70	=70	=70
1G	cla-	0r	.	1e	Gau-	1b	spon-
1E	-ra	.	.	1e	-de	1g	-sa
=71	=71	=71	=71	=71	=71	=71	=71
1G	lux	0r	.	1d	spon-	1b	ca-
1G	di-	.	.	1B	-sa	1b	-ra
=72	=72	=72	=72	=72	=72	=72	=72
1F	-e-	0r	.	1d	ca-	1a	de-
1D	-i	.	.	1d	-ra	1f	.
=73	=73	=73	=73	=73	=73	=73	=73
2r	.	1e	Nam	1c	de-	0e	-i
2A\	So-	.	.	.	.	.	.
2G\	-lis	1e	ut	[1B	.	.	.
2E\	.	.	.	.	.	.	.
=74	=74	=74	=74	=74	=74	=74	=74
0G	da-	1d	cla-	2B\]	.	1r	.
.	.	.	.	4A/	.	.	.
.	.	.	.	4G/	.	.	.
.	.	1B	-ra	[1d	.	2r	.
.	.	.	.	.	.	2g/	Nam
=75	=75	=75	=75	=75	=75	=75	=75
0D	-tur	1d	lux	1d]	.	2f/	ut
.	.	.	.	.	.	2d/	.
.	.	1d	di-	[1A	-i	1f	cla-
=76	=76	=76	=76	=76	=76	=76	=76
1r	.	1c	-e-	1A]	.	0e	-ra
2r	.	1A	.	[1e	Nam	.	.
2A\	lu-	.	.	.	.	.	.
=77	=77	=77	=77	=77	=77	=77	=77
2G\	.	0B	-i	1e]	.	2r	.
2E\	.	.	.	.	.	2ee\	lux
[1G	-mi-	.	.	1B	ut	2dd\	di-
.	.	.	.	.	.	2b\	.
=78	=78	=78	=78	=78	=78	=78	=78
0G]	.	2r	.	0g	cla-	4dd\	-e-
.	.	.	.	.	.	4cc\	.
.	.	2e\	So-	.	.	4b\	.
.	.	.	.	.	.	4a/	.
.	.	2d\	-lis	.	.	1b	.
.	.	2B\	.	.	.	.	.
=79	=79	=79	=79	=79	=79	=79	=79
1D	-ne,	1d	da-	1f	.	1a	-i
2r	.	1A	-tur	2e\	.	2r	.
2A\	lu-	.	.	2c\	.	2cc\	So-
=80	=80	=80	=80	=80	=80	=80	=80
2G\	.	2r	.	1g	-ra	2b\	.
2E\	.	2e\	lu-	.	.	2g/	-lis
[1G	.	2d\	.	2r	.	2b\	da-
.	.	2B\	.	[2g\	lux	2ee\	.
=81	=81	=81	=81	=81	=81	=81	=81
1G]	.	0d	.	2g\]	.	2dd\	-tur
.	.	.	.	2g\	di-	2b\	lu-
2F\	.	.	.	2a\	-e-	2dd\	.
2D\	-mi-	.	.	2f\	.	4cc\	.
.	.	.	.	.	.	[4b\	.
=82	=82	=82	=82	=82	=82	=82	=82
0E	-ne,	2c\	.	0e	-i	4b\]	.
.	.	.	.	.	.	4a/	.
.	.	2A/	.	.	.	1a	.
.	.	1B	-mi-	.	.	.	.
.	.	.	.	.	.	2g#i/	-mi-
=83	=83	=83	=83	=83	=83	=83	=83
2r	.	0A	-ne,	2r	.	0a	-ne,
1A	Sic	.	.	1f	So-	.	.
[2A\	tu	.	.	4e\	-lis	.	.
.	.	.	.	4d\	.	.	.
=84	=84	=84	=84	=84	=84	=84	=84
2A\]	.	0r	.	2e\	da-	1r	.
1B	fa-	.	.	1d	-tur	.	.
.	.	.	.	.	.	2r	.
[2A\	.	.	.	[2c\	lu-	[2ee\	Sic
=85	=85	=85	=85	=85	=85	=85	=85
2A\]	.	0r	.	4c\]	.	2ee\]	.
.	.	.	.	4d\	.	.	.
4G\	.	.	.	4e\	.	1ee	tu
4F\	.	.	.	4f\	.	.	.
2E\	.	.	.	2g\	.	.	.
2D\	-cis	.	.	2a\	.	[2ff\	fa-
=86	=86	=86	=86	=86	=86	=86	=86
2d\	or-	0r	.	2d\	.	2ff\]	.
2c\	.	.	.	1a	.	1ee	.
4A\	.	.	.	.	.	.	.
4B\	.	.	.	.	.	.	.
4c\	.	.	.	2a\	-mi-	4dd\	.
4d\	.	.	.	.	.	4cc\	.
=87	=87	=87	=87	=87	=87	=87	=87
2e\	.	0r	.	2g\	-ne,	2b\	.
2A\	-bem	.	.	1a	Sic	2a/	-cis
2r	.	.	.	.	.	2.cc\	or-
[2A\	ter-	.	.	[2a\	tu	.	.
.	.	.	.	.	.	4dd\	.
=88	=88	=88	=88	=88	=88	=88	=88
2A\]	.	0r	.	2a\]	.	4ee\	.
.	.	.	.	.	.	4ff\	.
1G	.	.	.	1b	fa-	2.gg\	.
.	.	.	.	.	.	4ff\	.
[2c\	.	.	.	2g\	-cis	4ee\	.
.	.	.	.	.	.	4dd\	.
=89	=89	=89	=89	=89	=89	=89	=89
4c\]	.	0r	.	2a\	or-	2cc\	.
4B\	.	.	.	.	.	.	.
4A\	.	.	.	2f\	-bem	1dd	-bem
4G\	.	.	.	.	.	.	.
1A	.	.	.	1e	ter-	.	.
.	.	.	.	.	.	2cc#i\	ter-
=90	=90	=90	=90	=90	=90	=90	=90
0D	-re.	0r	.	0d	-re.	0dd	-re.
=91	=91	=91	=91	=91	=91	=91	=91
2r	.	0e	Tu-	0r	.	0r	.
1A	Tu-	.	.	.	.	.	.
2G\	-e	.	.	.	.	.	.
=92	=92	=92	=92	=92	=92	=92	=92
2A\	pa-	1e	-e	1r	.	0r	.
1c	.	.	.	.	.	.	.
.	.	1e	pa-	2r	.	.	.
4B\	.	.	.	[2a\	Tu-	.	.
4A\	.	.	.	.	.	.	.
=93	=93	=93	=93	=93	=93	=93	=93
1B	.	1d	-cis	2a\]	.	0r	.
.	.	.	.	2g\	-e	.	.
1A	-cis	[1e	re-	1a	pa-	.	.
=94	=94	=94	=94	=94	=94	=94	=94
1c	re-	2e\]	.	1e	-cis	0r	.
.	.	2e\	-splen-	.	.	.	.
2.G\	-splen-	1B	-de-	1g	re-	.	.
4F\	.	.	.	.	.	.	.
=95	=95	=95	=95	=95	=95	=95	=95
2D\	.	1d	.	2f\	-splen-	0r	.
2.A\	-de-	.	.	1e	-de-	.	.
.	.	2c\	.	.	.	.	.
4G\	.	.	.	.	.	.	.
2G\	.	[2B\	.	2d\	.	.	.
=96	=96	=96	=96	=96	=96	=96	=96
1A	.	2B\]	.	1c	.	0r	.
.	.	1A	.	.	.	.	.
1E	-re	.	.	1B	-re	.	.
.	.	2G#i/	.	.	.	.	.
=97	=97	=97	=97	=97	=97	=97	=97
1r	.	0A	-re	2r	.	0r	.
.	.	.	.	2A/	Lu-	.	.
[1A	Lu-	.	.	2c\	.	.	.
.	.	.	.	4d\	.	.	.
.	.	.	.	4e\	.	.	.
=98	=98	=98	=98	=98	=98	=98	=98
1A]	.	1c	Lu-	2f\	.	0r	.
.	.	.	.	1e	-cis	.	.
1A	-cis	1c	-cis	.	.	.	.
.	.	.	.	[2a\	ple-	.	.
=99	=99	=99	=99	=99	=99	=99	=99
1B	ple-	1d	ple-	4a\]	.	0r	.
.	.	.	.	4g\	.	.	.
.	.	.	.	2g\	-ni-	.	.
1A	-ni-	[1e	-ni-	2a\	-tu-	.	.
.	.	.	.	2e\	.	.	.
=100	=100	=100	=100	=100	=100	=100	=100
1G	-tu-	1e]	.	1g	.	0r	.
2F\	.	2f\	-tu-	2a\	.	.	.
2C/	.	[2e\	.	[2g\	.	.	.
=101	=101	=101	=101	=101	=101	=101	=101
2E\	.	4e\]	.	4g\]	.	0r	.
.	.	4d\	.	4f\	.	.	.
2F\	.	1d	.	4e\	.	.	.
.	.	.	.	4d\	.	.	.
2G\	.	.	.	1e	-di-	.	.
2A\	-di-	2c#i\	-di-	.	.	.	.
=102	=102	=102	=102	=102	=102	=102	=102
[0D	-ne.	[0d	-ne.	0d	-ne.	0dd	Gau-
=103	=103	=103	=103	=103	=103	=103	=103
0D]	.	0d]	.	0r	.	1ff	-de
.	.	.	.	.	.	1ff	ma-
=104	=104	=104	=104	=104	=104	=104	=104
0r	.	0r	.	0a	Gau-	1ee	-ter
.	.	.	.	.	.	1cc	mi-
=105	=105	=105	=105	=105	=105	=105	=105
0r	.	0r	.	1f	-de	1dd	-se-
.	.	.	.	1g	ma-	1ee	-ro-
=106	=106	=106	=106	=106	=106	=106	=106
0r	.	0r	.	1a	-ter	0a	-rum,
.	.	.	.	1f	mi-	.	.
=107	=107	=107	=107	=107	=107	=107	=107
0r	.	0r	.	1g	-se-	1r	.
.	.	.	.	1a	-ro-	1cc	Qui-
=108	=108	=108	=108	=108	=108	=108	=108
0r	.	0r	.	0d	-rum,	1.dd	-a
.	.	.	.	.	.	4cc\	.
.	.	.	.	.	.	4b\	.
=109	=109	=109	=109	=109	=109	=109	=109
0r	.	0r	.	1r	.	2a/	.
.	.	.	.	.	.	2.dd\	pa-
.	.	.	.	1f	Qui-	.	.
.	.	.	.	.	.	4cc\	.
.	.	.	.	.	.	4b\	.
.	.	.	.	.	.	4a/	.
=110	=110	=110	=110	=110	=110	=110	=110
0r	.	0r	.	1.g	-a	1g	.
.	.	.	.	.	.	1dd	-ter
.	.	.	.	4f\	.	.	.
.	.	.	.	4e\	.	.	.
=111	=111	=111	=111	=111	=111	=111	=111
0r	.	0r	.	2d\	.	1dd	se-
.	.	.	.	2.g\	pa-	.	.
.	.	.	.	.	.	2dd\	-cu-
.	.	.	.	4f\	.	.	.
.	.	.	.	4e\	-ter	[2ee\	-lo-
.	.	.	.	4d\	.	.	.
=112	=112	=112	=112	=112	=112	=112	=112
0r	.	0r	.	2c\	se-	4ee\]	.
.	.	.	.	.	.	4dd\	.
.	.	.	.	2e\	-cu-	1cc	.
.	.	.	.	1d	-lo-	.	.
.	.	.	.	.	.	2b\	.
=113	=113	=113	=113	=113	=113	=113	=113
1A	Da-	1e	Da-	0c	-rum	0cc	-rum
1A	-bit	1e	-bit	.	.	.	.
=114	=114	=114	=114	=114	=114	=114	=114
2G\	te	2.e\	te	0r	.	0r	.
2.A\	co-	.	.	.	.	.	.
.	.	4d\	.	.	.	.	.
.	.	4c\	.	.	.	.	.
4G\	.	4B\	.	.	.	.	.
4F\	.	[2d\	co-	.	.	.	.
4E\	.	.	.	.	.	.	.
=115	=115	=115	=115	=115	=115	=115	=115
2G\	-len-	2d\]	.	0r	.	0r	.
2C/	.	1c	-len-	.	.	.	.
1D	-ti-	.	.	.	.	.	.
.	.	2B\	-ti-	.	.	.	.
=116	=116	=116	=116	=116	=116	=116	=116
2C/	-bus	0c	-bus	0r	.	1r	.
1F	Con-	.	.	.	.	.	.
.	.	.	.	.	.	1cc	Con-
2E\	-gru-	.	.	.	.	.	.
=117	=117	=117	=117	=117	=117	=117	=117
1D	-en-	1r	.	0r	.	1dd	-gru-
1C	-ten	1c	hic	.	.	1ee	-en-
=118	=118	=118	=118	=118	=118	=118	=118
1F	hic	1d	mer-	0r	.	2a/	-ten
.	.	.	.	.	.	2dd\	hic
1E	mer-	1e	-ce-	.	.	2cc\	mer-
.	.	.	.	.	.	[2b\	-ce-
=119	=119	=119	=119	=119	=119	=119	=119
1F	-ce-	1A	.	0r	.	4b\]	.
.	.	.	.	.	.	4a/	.
.	.	.	.	.	.	1a	.
1E	-dem	1B	.	.	.	.	.
.	.	.	.	.	.	2g#i/	.
=120	=120	=120	=120	=120	=120	=120	=120
0r	.	0A	-dem	0r	.	0a	-dem
=121	=121	=121	=121	=121	=121	=121	=121
0A	Et	0e	Et	0a	Et	0cc	Et
=122	=122	=122	=122	=122	=122	=122	=122
1A	fe-	1e	fe-	1a	fe-	1cc	fe-
1A	-li-	1e	-li-	[1a	-li-	1cc	-li-
=123	=123	=123	=123	=123	=123	=123	=123
1D	-cem	1d	.	1a]	.	1.dd	-cem
1G	po-	1B	-cem	2.g\	-cem	.	.
.	.	.	.	.	.	4cc\	po-
.	.	.	.	4f\	po-	4b\	.
=124	=124	=124	=124	=124	=124	=124	=124
2A\	-li	2r	.	2e\	-li	2cc\	-li
2B\	se-	1d	po-	2d\	se-	2dd\	se-
1G	-dem	.	.	1g	-dem	2b\	-dem
.	.	2B\	-li	.	.	[2ee\	Re-
=125	=125	=125	=125	=125	=125	=125	=125
2A\	Re-	2c\	se-	2r	.	2ee\]	.
2B\	.	2d\	.	1G	Re-	1dd	-gnis
1G	.	2B\	-dem	.	.	.	.
.	.	[2e\	Re-	2B\	-gnis	2b\	in
=126	=126	=126	=126	=126	=126	=126	=126
2A\	.	4e\]	.	2A/	in	2cc\	ce-
.	.	4d\	.	.	.	.	.
2B\	.	2d\	-gnis	2G/	ce-	2dd\	.
2E\	.	1e	in	2B\	-le-	2b\	.
2C/	.	.	.	2c\	-sti-	[2ee\	-le-
=127	=127	=127	=127	=127	=127	=127	=127
1D	-gnis	1f	.	[0A	-bus.	2ee\]	.
.	.	.	.	.	.	2dd\	.
2r	.	2e\	ce-	.	.	2ee\	.
[2D\	in	2d\	.	.	.	[2ff\	.
=128	=128	=128	=128	=128	=128	=128	=128
2D\]	.	1e	-le-	0A]	.	2ff\]	.
2C/	ce-	.	.	.	.	2.ee\	.
1D	-le-	1f	-sti-	.	.	.	.
.	.	.	.	.	.	4dd\	.
.	.	.	.	.	.	2dd\	-sti-
=129	=129	=129	=129	=129	=129	=129	=129
0A	-sti-	0e	-bus.	1r	.	1ee	-bus.
.	.	.	.	1a	Gau-	1r	.
=130	=130	=130	=130	=130	=130	=130	=130
0E	-bus.	0e	Gau-	1g	-de	0ee	Gau-
.	.	.	.	1g	pa-	.	.
=131	=131	=131	=131	=131	=131	=131	=131
1A	Gau-	1e	-de	0a	-rens	1cc	-de
1A	-de	1e	pa-	.	.	1cc	pa-
=132	=132	=132	=132	=132	=132	=132	=132
0F	pa-	1A	-rens	1a	vir-	1ff	-rens
.	.	1A	vir-	1a	-go	1ff	vir-
=133	=133	=133	=133	=133	=133	=133	=133
0C	-rens	2.c\	.	1g	pu-	0ee	-go
.	.	4B\	.	.	.	.	.
.	.	2G/	.	2g\	.	.	.
.	.	[2c\	-go	[2a\	.	.	.
=134	=134	=134	=134	=134	=134	=134	=134
1F	vir-	2c\]	.	4a\]	.	2cc\	pu-
.	.	.	.	4g\	.	.	.
.	.	1c	pu-	1f	.	2a/	.
1G	-go	.	.	.	.	1b	.
.	.	2B\	.	2e\	.	.	.
=135	=135	=135	=135	=135	=135	=135	=135
1.F	pu-	0c	-ra,	0f	-ra,	0a	-ra,
4E\	.	.	.	.	.	.	.
4D\	.	.	.	.	.	.	.
=136	=136	=136	=136	=136	=136	=136	=136
[0D	-ra,	0f	Cer-	0a	Cer-	0dd	Cer-
=137	=137	=137	=137	=137	=137	=137	=137
0D]	.	1f	-ta	1a	-ta	1dd	-ta
.	.	1f	ma-	1a	ma-	1dd	ma-
=138	=138	=138	=138	=138	=138	=138	=138
1A	Cer-	1e	-nens	0a	-nens	1cc	-nens
2F\	-ta	2.f\	et	.	.	2a/	et
2D\	ma-	.	.	.	.	4dd\	se-
.	.	4e\	.	.	.	4cc\	.
=139	=139	=139	=139	=139	=139	=139	=139
2G\	-nens	2d\	.	2g\	et	4b\	.
.	.	.	.	.	.	4a/	.
2A\	et	2c\	se-	2.e\	se-	1a	-cu-
1E	se-	1B	-cu-	.	.	.	.
.	.	.	.	4d\	.	.	.
.	.	.	.	2e\	.	2g#i/	.
=140	=140	=140	=140	=140	=140	=140	=140
0F	-cu-	[0A	-ra,	2c\	-cu-	1a	-ra,
.	.	.	.	2.d\	.	.	.
.	.	.	.	.	.	1r	.
.	.	.	.	4c\	.	.	.
.	.	.	.	2c\	.	.	.
=141	=141	=141	=141	=141	=141	=141	=141
0D	-ra,	0A]	.	0d	-ra,	1f	Quod
.	.	.	.	.	.	1f	hec
=142	=142	=142	=142	=142	=142	=142	=142
2r	.	0r	.	0r	.	2e/	tu-
2D\	Quod	.	.	.	.	2f/	.
2C/	hec	.	.	.	.	2e/	-a
[2D\	tu-	.	.	.	.	[2f/	gau-
=143	=143	=143	=143	=143	=143	=143	=143
2D\]	.	0A	Quod	0a	Quod	2f/]	.
2D\	-a	.	.	.	.	4e/	.
.	.	.	.	.	.	4d/	.
2C/	gau-	.	.	.	.	2e/	.
[2D\	.	.	.	.	.	[2f/	.
=144	=144	=144	=144	=144	=144	=144	=144
2D\]	.	1A	hec	1a	hec	2f/]	.
2E\	.	.	.	.	.	1e	.
1F	-di-	1A	tu-	1a	tu-	.	.
.	.	.	.	.	.	2d/	-di-
=145	=145	=145	=145	=145	=145	=145	=145
0E	-a	0B	-a	[0g	-a	0e	-a,
=146	=146	=146	=146	=146	=146	=146	=146
1E	Quod	0B	gau-	0g]	.	0ee	Quod
1E	hec	.	.	.	.	.	.
=147	=147	=147	=147	=147	=147	=147	=147
0C	tu-	1c	-di-	1.g	gau-	1ee	hec
.	.	1c	-a	.	.	1ee	tu-
.	.	.	.	2g\	-di-	.	.
=148	=148	=148	=148	=148	=148	=148	=148
1G	-a	2B\	tu-	2.g\	-a	1dd	-a
.	.	1B	-a	.	.	.	.
.	.	.	.	4f\	.	.	.
1A	gau-	.	.	4e\	.	1cc	gau-
.	.	.	.	4d\	.	.	.
.	.	2A/	.	[2f\	.	.	.
=149	=149	=149	=149	=149	=149	=149	=149
1E	-di-	2B\	gau-	2f\]	.	1b	-di-
.	.	2G/	-di-	1e	gau-	.	.
1F	.	1A	-a	.	.	1a	.
.	.	.	.	2d\	-di-	.	.
=150	=150	=150	=150	=150	=150	=150	=150
*M3/1	*	*M3/1	*	*M3/1	*	*M3/1	*
*met(3)	*	*met(3)	*	*met(3)	*	*met(3)	*
1E	-a	1B	Non	0e	-a	1g	-a
1A	Non	1A	.	.	.	1cc	Non
1G	ces-	1B	ces-	1e	Non	1b	ces-
=151	=151	=151	=151	=151	=151	=151	=151
1F	-sa-	1c	-sa-	1.f	ces-	1a	-sa-
1D	.	1d	.	.	.	1dd	.
.	.	.	.	2e\	.	.	.
1A	.	1e	.	1e	.	1cc	.
=152	=152	=152	=152	=152	=152	=152	=152
1F	.	2.f\	.	0a	-sa-	1ff	.
.	.	4e\	.	.	.	.	.
1c	.	2c\	.	.	.	2.ee\	.
.	.	1e	.	.	.	.	.
.	.	.	.	.	.	4cc\	.
1B	.	.	.	1g#i	.	1dd	.
.	.	2d\	.	.	.	.	.
=153	=153	=153	=153	=153	=153	=153	=153
0A	-bunt,	0e	-bunt,	0a	-bunt,	0cc	-bunt,
1r	.	1r	.	1r	.	1r	.
=154	=154	=154	=154	=154	=154	=154	=154
1.F	nec	0f	nec	0a	nec	0cc	nec
2G\	de-	.	.	.	.	.	.
1A	-cre-	1e	de-	1a	de-	1cc	de-
=155	=155	=155	=155	=155	=155	=155	=155
0D	-scent,	1d	-cre-	1.f	-cre-	1dd	-cre-
.	.	0f	-scent,	.	.	1a	-scent,
.	.	.	.	2e\	-scent,	.	.
[1F	Sed	.	.	1d	Sed	1r	.
=156	=156	=156	=156	=156	=156	=156	=156
2F\]	.	1f	Sed	0c	du-	1cc	Sed
2G\	du-	.	.	.	.	.	.
1A	-ra-	1e	.	.	.	1cc	du-
1D	-bunt	1d	du-	[1f	-ra-	1dd	-ra-
=157	=157	=157	=157	=157	=157	=157	=157
1.F	et	1.c	-ra-	2f\]	.	1a	-bunt
.	.	.	.	2g\	.	.	.
.	.	.	.	0a	-bunt	0cc	et
2G\	flo-	2B\	.	.	.	.	.
1A	-re-	2c\	-bunt	.	.	.	.
.	.	2d\	.	.	.	.	.
=158	=158	=158	=158	=158	=158	=158	=158
0E	-scent	1e	et	1g	et	1b	flo-
.	.	1B	.	1e	.	0ee	-re-
1E	Per	1e	flo-	1g	flo-	.	.
=159	=159	=159	=159	=159	=159	=159	=159
1F	e-	1A	-re-	1a	-re-	1dd	.
1E	-ter-	1e	.	1g	.	2cc\	.
.	.	.	.	.	.	1b	-scent
1F	-na	1c	-scent	1a	-scent	.	.
.	.	.	.	.	.	2a/	.
=160	=160	=160	=160	=160	=160	=160	=160
1D	se-	1d	Per	1f	Per	0a	Per
0E	-cu-	0B	e-	0e	e-	.	.
.	.	.	.	.	.	1g#i	e-
=161	=161	=161	=161	=161	=161	=161	=161
0F	-la.	1.A	-ter-	1.c	-ter-	2a/	-ter-
.	.	.	.	.	.	1cc	.
.	.	2B\	.	2B\	.	2dd\	.
1E	.	1c	-na	1G	-na	1ee	-na
=162	=162	=162	=162	=162	=162	=162	=162
1D	A-	1d	se-	1A	se-	1ff	se-
1A	.	1c	.	1c	.	1.ee	-cu-
1B	.	1f	-cu-	1d	-cu-	.	.
.	.	.	.	.	.	2dd\	.
=163	=163	=163	=163	=163	=163	=163	=163
1G	.	1g	-la.	1B	-la.	0dd	-la.
0A	.	0e	A-	0A	A-	.	.
.	.	.	.	.	.	1cc#i	A-
=164	=164	=164	=164	=164	=164	=164	=164
*	*	*	*	*^	*	*	*
0.Dl	-men.	0.dl	-men.	0.Al\	0.al/	-men.	0.ddl	-men.
*	*	*	*	*v	*v	*	*	*
==	==	==	==	==	==	==	==
*-	*-	*-	*-	*-	*-	*-	*-
!!!RDF**kern: l=long note in original notation
!!!RDF**kern: i=editorial accidental
!!!ENC:	Jesse Rodin; Chris Gage 01-02-2013
!!!END:	2015/06/16/
!!!EED:	Jesse Rodin
!!!EEV:	2015/06/17/
!!!ONB:	Translated from MusicXML and edited on 2015/06/17/ by Craig Sapp
!!muse2ps: C^@{COM}^i2I150v90,90,90,130Q1c130z18
